icons/file_check.svg

<svg xmlns="http://www.w3.org/2000/svg" width="24" height="24" viewBox="0 0 24 24"><path d="M1 1h10v4.5a.5.5 0 0 0 .5.5H16v3.5h1v-4a.5.5 0 0 0-.03-.15c-.004-.013-.003-.027-.008-.04a.502.502 0 0 0-.115-.168L11.854.147A.495.495 0 0 0 11.5 0H.5a.5.5 0 0 0-.5.5v21a.5.5 0 0 0 .5.5h10v-1H1V1zm11 .708L15.29 5H12V1.708z"/><path d="M17.5 11c-3.584 0-6.5 2.916-6.5 6.5s2.916 6.5 6.5 6.5 6.5-2.916 6.5-6.5-2.916-6.5-6.5-6.5zm0 12c-3.033 0-5.5-2.467-5.5-5.5s2.467-5.5 5.5-5.5 5.5 2.467 5.5 5.5-2.467 5.5-5.5 5.5z"/><path d="M20.403 15.528l-3.465 3.797-2.357-2.357a.5.5 0 0 0-.7.707l2.727 2.728a.5.5 0 0 0 .354.146h.01a.5.5 0 0 0 .36-.17l3.817-4.183a.5.5 0 0 0-.032-.706.5.5 0 0 0-.707.033z"/></svg>

<?xml version="1.0" encoding="utf-8"?>
<!-- Generator: Adobe Illustrator 16.0.0, SVG Export Plug-In . SVG Version: 6.00 Build 0)  -->
<!DOCTYPE svg PUBLIC "-//W3C//DTD SVG 1.1//EN" "http://www.w3.org/Graphics/SVG/1.1/DTD/svg11.dtd">
<svg version="1.1" id="Outline_Icons" xmlns="http://www.w3.org/2000/svg" xmlns:xlink="http://www.w3.org/1999/xlink" x="0px"
	 y="0px" width="24px" height="24px" viewBox="0 0 24 24" enable-background="new 0 0 24 24" xml:space="preserve">
<g>
	<path d="M1,1h10v4.5C11,5.776,11.224,6,11.5,6H16v3.5h1V5.502c0,0,0,0,0-0.001s0,0,0-0.001c0-0.053-0.015-0.102-0.03-0.15
		c-0.004-0.013-0.003-0.027-0.008-0.039c-0.026-0.064-0.066-0.121-0.115-0.169l-4.993-4.995c-0.046-0.046-0.101-0.083-0.162-0.108
		C11.632,0.014,11.567,0,11.5,0h-11C0.224,0,0,0.224,0,0.5v21C0,21.776,0.224,22,0.5,22h10v-1H1V1z M12,1.708L15.291,5H12V1.708z"/>
	<path d="M17.5,11c-3.584,0-6.5,2.916-6.5,6.5s2.916,6.5,6.5,6.5s6.5-2.916,6.5-6.5S21.084,11,17.5,11z M17.5,23
		c-3.033,0-5.5-2.467-5.5-5.5s2.467-5.5,5.5-5.5s5.5,2.467,5.5,5.5S20.533,23,17.5,23z"/>
	<path d="M20.403,15.528l-3.465,3.797l-2.357-2.357c-0.195-0.195-0.512-0.195-0.707,0s-0.195,0.512,0,0.707l2.728,2.728
		c0.094,0.094,0.221,0.146,0.354,0.146c0.004,0,0.008,0,0.011,0c0.137-0.003,0.266-0.062,0.358-0.163l3.818-4.184
		c0.187-0.204,0.172-0.52-0.032-0.706C20.905,15.308,20.589,15.323,20.403,15.528z"/>
</g>
</svg>
